app/assets/icons/polaris/HashtagMajor.svg

<svg viewBox="0 0 20 20" xmlns="http://www.w3.org/2000/svg"><path fill-rule="evenodd" d="M7.992 2.124a1 1 0 1 0-1.984-.248l-.39 3.124h-3.618a1 1 0 0 0 0 2h3.367l-.75 6h-2.617a1 1 0 1 0 0 2h2.367l-.36 2.876a1 1 0 1 0 1.985.248l.39-3.124h5.985l-.36 2.876a1 1 0 0 0 1.985.248l.39-3.124h3.618a1 1 0 1 0 0-2h-3.367l.75-6h2.617a1 1 0 1 0 0-2h-2.367l.36-2.876a1 1 0 1 0-1.985-.248l-.39 3.124h-5.986l.36-2.876zm4.625 10.876.75-6h-5.984l-.75 6h5.984z"/></svg>

<svg viewBox="0 0 20 20" xmlns="http://www.w3.org/2000/svg"><path fill-rule="evenodd" d="M7.992 2.124a1 1 0 1 0-1.984-.248L5.618 5H2a1 1 0 0 0 0 2h3.367l-.75 6H2a1 1 0 1 0 0 2h2.367l-.36 2.876a1 1 0 1 0 1.985.248L6.382 15h5.985l-.36 2.876a1 1 0 0 0 1.985.248l.39-3.124H18a1 1 0 1 0 0-2h-3.367l.75-6H18a1 1 0 1 0 0-2h-2.367l.36-2.876a1 1 0 1 0-1.985-.248L13.618 5H7.632l.36-2.876zM12.617 13l.75-6H7.383l-.75 6h5.984z"/></svg>
